icons/svg/icons8/yacht.svg

<svg width="26" height="26" viewBox="0 0 26 26" fill="none" xmlns="http://www.w3.org/2000/svg">
<g clip-path="url(#clip0)">
<path d="M26 20.934C25.732 21.028 25.409 21.094 25 21.094C24.167 21.094 22.887 20.866 22 20.168C21.113 20.866 19.833 21.094 19 21.094C18.167 21.094 16.887 20.866 16 20.168C15.113 20.866 13.833 21.094 13 21.094C12.167 21.094 10.887 20.866 10 20.168C9.113 20.866 7.833 21.094 7 21.094C6.167 21.094 4.887 20.866 4 20.168C3.113 20.866 1.833 21.094 1 21.094C0.626 21.094 0.301 21.061 0 21.014V22.86C0.291 22.891 0.619 22.911 1 22.911C2.734 22.911 3.369 22.481 4 21.985C4.887 22.683 6.167 22.911 7 22.911C7.833 22.911 9.113 22.683 10 21.985C10.887 22.683 12.167 22.911 13 22.911C13.833 22.911 15.113 22.683 16 21.985C16.887 22.683 18.167 22.911 19 22.911C19.833 22.911 21.113 22.683 22 21.985C22.887 22.683 24.167 22.911 25 22.911C25.414 22.911 25.736 22.848 26 22.761V20.934Z" fill="#333333"/>
<path d="M26 23.934C25.732 24.028 25.409 24.094 25 24.094C24.167 24.094 22.887 23.866 22 23.168C21.113 23.866 19.833 24.094 19 24.094C18.167 24.094 16.887 23.866 16 23.168C15.113 23.866 13.833 24.094 13 24.094C12.167 24.094 10.887 23.866 10 23.168C9.113 23.866 7.833 24.094 7 24.094C6.167 24.094 4.887 23.866 4 23.168C3.113 23.866 1.833 24.094 1 24.094C0.626 24.094 0.301 24.061 0 24.014V25.86C0.291 25.891 0.619 25.911 1 25.911C2.734 25.911 3.369 25.481 4 24.985C4.887 25.683 6.167 25.911 7 25.911C7.833 25.911 9.113 25.683 10 24.985C10.887 25.683 12.167 25.911 13 25.911C13.833 25.911 15.113 25.683 16 24.985C16.887 25.683 18.167 25.911 19 25.911C19.833 25.911 21.113 25.683 22 24.985C22.887 25.683 24.167 25.911 25 25.911C25.414 25.911 25.736 25.848 26 25.761V23.934Z" fill="#333333"/>
<path d="M4.88916 15.043C4.99116 15.006 19.4322 11.411 19.4322 11.411C19.4322 11.411 14.9502 9.83 13.0062 10.104C11.4212 10.328 6.72016 10.897 6.47816 11.241C6.09216 11.786 5.02916 14.136 4.88916 15.043Z" fill="#333333"/>
<path d="M2.29706 9C1.98406 9 1.95306 9.109 2.17206 9.359C2.34706 9.559 6.21906 12.995 6.21906 12.995L9.01206 11.807C9.01206 11.807 4.79806 9.431 4.50006 9.234C4.20206 9.037 4.18806 9 3.85906 9C3.53006 9 2.64106 9 2.29706 9Z" fill="#333333"/>
<path d="M25.3711 11.059C25.3711 11.059 9.11906 15.102 6.14806 15.925C2.82706 16.846 1.03906 19.873 1.03906 21.223C1.03906 21.957 1.08506 22 2.14106 22C2.72006 22 16.7331 22 17.4071 22C20.2511 22 23.7121 15.65 25.8291 11.922C26.2101 11.249 25.7811 10.969 25.3711 11.059ZM7.70506 19.479C7.16306 19.592 6.63306 19.246 6.52106 18.706C6.40806 18.165 6.75206 17.636 7.29406 17.522C7.83506 17.409 8.36406 17.754 8.47806 18.295C8.59106 18.836 8.24406 19.365 7.70506 19.479ZM11.6201 18.658C11.0771 18.772 10.5501 18.426 10.4361 17.885C10.3221 17.344 10.6681 16.816 11.2091 16.701C11.7491 16.588 12.2791 16.935 12.3931 17.475C12.5071 18.015 12.1601 18.546 11.6201 18.658ZM15.5341 17.84C14.9931 17.953 14.4641 17.607 14.3511 17.067C14.2381 16.526 14.5821 15.995 15.1241 15.883C15.6651 15.769 16.1931 16.115 16.3081 16.656C16.4221 17.196 16.0741 17.727 15.5341 17.84Z" fill="#333333"/>
</g>
<defs>
<clipPath id="clip0">
<rect width="26" height="26" fill="white"/>
</clipPath>
</defs>
</svg>

<?xml version="1.0" encoding="utf-8"?>
<!-- Generator: Adobe Illustrator 15.0.0, SVG Export Plug-In . SVG Version: 6.00 Build 0)  -->
<!DOCTYPE svg PUBLIC "-//W3C//DTD SVG 1.1//EN" "http://www.w3.org/Graphics/SVG/1.1/DTD/svg11.dtd">
<svg version="1.1" id="Layer_1" xmlns="http://www.w3.org/2000/svg" xmlns:xlink="http://www.w3.org/1999/xlink" x="0px" y="0px"
	 width="26px" height="26px" viewBox="0 0 26 26" enable-background="new 0 0 26 26" xml:space="preserve">
<rect x="902" y="1469" fill="#333333" width="26" height="2"/>
<rect x="902" y="1489" fill="#333333" width="26" height="2"/>
<rect x="906" y="1474" fill="#333333" width="18" height="2"/>
<rect x="902" y="1479" fill="#333333" width="26" height="2"/>
<rect x="906" y="1484" fill="#333333" width="18" height="2"/>
<rect x="902" y="1467" fill="none" width="26" height="26"/>
<rect fill="none" width="26" height="26"/>
<path fill="#333333" d="M26,20.934c-0.268,0.094-0.591,0.16-1,0.16c-0.833,0-2.113-0.228-3-0.926c-0.887,0.698-2.167,0.926-3,0.926
	s-2.113-0.228-3-0.926c-0.887,0.698-2.167,0.926-3,0.926s-2.113-0.228-3-0.926c-0.887,0.698-2.167,0.926-3,0.926
	s-2.113-0.228-3-0.926c-0.887,0.698-2.167,0.926-3,0.926c-0.374,0-0.699-0.033-1-0.08v1.846c0.291,0.031,0.619,0.051,1,0.051
	c1.734,0,2.369-0.43,3-0.926c0.887,0.698,2.167,0.926,3,0.926s2.113-0.228,3-0.926c0.887,0.698,2.167,0.926,3,0.926
	s2.113-0.228,3-0.926c0.887,0.698,2.167,0.926,3,0.926s2.113-0.228,3-0.926c0.887,0.698,2.167,0.926,3,0.926
	c0.414,0,0.736-0.063,1-0.15V20.934z"/>
<path fill="#333333" d="M26,23.934c-0.268,0.094-0.591,0.16-1,0.16c-0.833,0-2.113-0.228-3-0.926c-0.887,0.698-2.167,0.926-3,0.926
	s-2.113-0.228-3-0.926c-0.887,0.698-2.167,0.926-3,0.926s-2.113-0.228-3-0.926c-0.887,0.698-2.167,0.926-3,0.926
	s-2.113-0.228-3-0.926c-0.887,0.698-2.167,0.926-3,0.926c-0.374,0-0.699-0.033-1-0.08v1.846c0.291,0.031,0.619,0.051,1,0.051
	c1.734,0,2.369-0.43,3-0.926c0.887,0.698,2.167,0.926,3,0.926s2.113-0.228,3-0.926c0.887,0.698,2.167,0.926,3,0.926
	s2.113-0.228,3-0.926c0.887,0.698,2.167,0.926,3,0.926s2.113-0.228,3-0.926c0.887,0.698,2.167,0.926,3,0.926
	c0.414,0,0.736-0.063,1-0.15V23.934z"/>
<path fill="#333333" d="M4.889,15.043c0.102-0.037,14.543-3.632,14.543-3.632s-4.482-1.581-6.426-1.307
	c-1.585,0.224-6.286,0.793-6.528,1.137C6.092,11.786,5.029,14.136,4.889,15.043z"/>
<path fill="#333333" d="M2.297,9C1.984,9,1.953,9.109,2.172,9.359c0.175,0.2,4.047,3.636,4.047,3.636l2.793-1.188
	c0,0-4.214-2.376-4.512-2.573S4.188,9,3.859,9S2.641,9,2.297,9z"/>
<path fill="#333333" d="M25.371,11.059c0,0-16.252,4.043-19.223,4.866c-3.321,0.921-5.109,3.948-5.109,5.298
	C1.039,21.957,1.085,22,2.141,22c0.579,0,14.592,0,15.266,0c2.844,0,6.305-6.35,8.422-10.078
	C26.21,11.249,25.781,10.969,25.371,11.059z M7.705,19.479c-0.542,0.113-1.072-0.233-1.184-0.773
	c-0.113-0.541,0.231-1.07,0.773-1.184c0.541-0.113,1.07,0.232,1.184,0.773C8.591,18.836,8.244,19.365,7.705,19.479z M11.62,18.658
	c-0.543,0.114-1.07-0.232-1.184-0.773s0.232-1.069,0.773-1.184c0.54-0.113,1.07,0.234,1.184,0.774S12.16,18.546,11.62,18.658z
	 M15.534,17.84c-0.541,0.113-1.07-0.233-1.183-0.773c-0.113-0.541,0.231-1.072,0.773-1.184c0.541-0.114,1.069,0.232,1.184,0.773
	C16.422,17.196,16.074,17.727,15.534,17.84z"/>
</svg>
